svgs/regular/rv.svg

<svg xmlns="http://www.w3.org/2000/svg" viewBox="0 0 640 512"><!--! Font Awesome Pro 6.3.0 by @fontawesome - https://fontawesome.com License - https://fontawesome.com/license (Commercial License) Copyright 2023 Fonticons, Inc. --><path d="M224 24c0-13.3 10.7-24 24-24H360c13.3 0 24 10.7 24 24v8H520c48.6 0 88 39.4 88 88v40c0 22.5-15.5 41.4-36.4 46.6l53.1 41.7c9.7 7.6 15.3 19.2 15.3 31.5V376c0 22.1-17.9 40-40 40H574.4c1 5.2 1.6 10.5 1.6 16c0 44.2-35.8 80-80 80s-80-35.8-80-80c0-5.5 .6-10.8 1.6-16H408 254.4c1 5.2 1.6 10.5 1.6 16c0 44.2-35.8 80-80 80s-80-35.8-80-80c0-7 .9-13.7 2.6-20.1c-1.3-.8-2.4-1.8-3.5-2.9L21.1 335C7.6 321.5 0 303.2 0 284.1V104C0 64.2 32.2 32 72 32H224V24zM72 80c-13.3 0-24 10.7-24 24V284.1c0 6.4 2.5 12.5 7 17L121.9 368H128c13.4-10 30-16 48-16s34.6 6 48 16H384V256 184c0-13.3 10.7-24 24-24h16 80 56V120c0-22.1-17.9-40-40-40H72zM556.8 256l-61.1-48H432v48H556.8zM208 432a32 32 0 1 0 -64 0 32 32 0 1 0 64 0zm320 0a32 32 0 1 0 -64 0 32 32 0 1 0 64 0zM120 128H264c13.3 0 24 10.7 24 24v80c0 13.3-10.7 24-24 24H120c-13.3 0-24-10.7-24-24V152c0-13.3 10.7-24 24-24z"/></svg>

<svg xmlns="http://www.w3.org/2000/svg" viewBox="0 0 640 512"><!--! Font Awesome Pro 6.2.0 by @fontawesome - https://fontawesome.com License - https://fontawesome.com/license (Commercial License) Copyright 2022 Fonticons, Inc. --><path d="M264 128C277.3 128 288 138.7 288 152V232C288 245.3 277.3 256 264 256H120C106.7 256 96 245.3 96 232V152C96 138.7 106.7 128 120 128H264zM224 24C224 10.75 234.7 0 248 0H360C373.3 0 384 10.75 384 24V32H520C568.6 32 608 71.4 608 120V160C608 182.5 592.5 201.4 571.6 206.6L624.7 248.3C634.4 255.9 640 267.5 640 279.8V376C640 398.1 622.1 416 600 416H574.4C575.4 421.2 576 426.5 576 432C576 476.2 540.2 512 496 512C451.8 512 416 476.2 416 432C416 426.5 416.6 421.2 417.6 416H254.4C255.4 421.2 256 426.5 256 432C256 476.2 220.2 512 176 512C131.8 512 96 476.2 96 432C96 425 96.89 418.3 98.55 411.9C97.3 411 96.12 410.1 95.03 408.1L21.09 335C7.586 321.5 0 303.2 0 284.1V104C0 64.24 32.24 32 72 32H224V24zM72 80C58.75 80 48 90.75 48 104V284.1C48 290.5 50.53 296.6 55.03 301.1L121.9 368H127.1C141.4 357.1 157.1 352 176 352C194 352 210.6 357.1 224 368H384V184C384 170.7 394.7 160 408 160H560V120C560 97.91 542.1 80 520 80H72zM495.7 208H432V256H556.8L495.7 208zM176 400C158.3 400 144 414.3 144 432C144 449.7 158.3 464 176 464C193.7 464 208 449.7 208 432C208 414.3 193.7 400 176 400zM496 400C478.3 400 464 414.3 464 432C464 449.7 478.3 464 496 464C513.7 464 528 449.7 528 432C528 414.3 513.7 400 496 400z"/></svg>
